icons/wallet-3-fill.svg

<svg viewBox="0 0 24 24" fill="currentColor" xmlns="http://www.w3.org/2000/svg">
    <path d="M22.0049 5.99979H15.0049C11.6912 5.99979 9.00488 8.68608 9.00488 11.9998C9.00488 15.3135 11.6912 17.9998 15.0049 17.9998H22.0049V19.9998C22.0049 20.5521 21.5572 20.9998 21.0049 20.9998H3.00488C2.4526 20.9998 2.00488 20.5521 2.00488 19.9998V3.99979C2.00488 3.4475 2.4526 2.99979 3.00488 2.99979H21.0049C21.5572 2.99979 22.0049 3.4475 22.0049 3.99979V5.99979ZM15.0049 7.99979H23.0049V15.9998H15.0049C12.7957 15.9998 11.0049 14.2089 11.0049 11.9998C11.0049 9.79065 12.7957 7.99979 15.0049 7.99979ZM15.0049 10.9998V12.9998H18.0049V10.9998H15.0049Z"/>
</svg>

<svg xmlns="http://www.w3.org/2000/svg" viewBox="0 0 24 24">
    <g>
        <path fill="none" d="M0 0h24v24H0z"/>
        <path d="M22 6h-7a6 6 0 1 0 0 12h7v2a1 1 0 0 1-1 1H3a1 1 0 0 1-1-1V4a1 1 0 0 1 1-1h18a1 1 0 0 1 1 1v2zm-7 2h8v8h-8a4 4 0 1 1 0-8zm0 3v2h3v-2h-3z"/>
    </g>
</svg>
